X:2526
T:Cantar de Navidá (CT 170)
R:Navidá
C:Tradicional
S:Música Tradicional Asturiana, (C) Tello & Tito. Asturies, 2001.
S:http://pagina.de/MusTradAst <telloytito@asturies.org>
N:Canción de Navidad, dictada por Rosalía González González, de cuarenta y siete años, de Vega, ayuntamiento de Navia.
O:Vega (Navia)
A:Asturies
Z:Cancioneru de Torner 170
M:6/8
L:1/8
Q:3/8=80
W:Hoy es la gran noche
W:de los Santos Reyes,
W:que el angel y el hombre
W:celebran alegres.
W:
W:La Virgen María
W:un niño parió
W:y San Juan Bautista
W:se lo bautizó.
W:
W:Bajen los chorizos
W:y las longanizas,
W:por propio seguro:
W:que bajen aprisa.
W:
W:No nos den castañas,
W:nueces, ni avellanas,
W:que entre caballeros
W:es cosa ordinaria.
W:
W:Pues aquí llegamos
W:cantar aguinaldos,
W:esperamos d'ellos
W:un buen resultado.
K:Gm
|G2 B A2 G|^F3 G3|A2 B/>d/ c2 A|B3 G3|
B2 B A2 G|^F3 G3|A2 A G2 ^F|G3 G3 :||


